docs/.gitbook/assets/icon-soccer-ball-16@light.svg

<svg width="32" height="32" viewBox="0 0 16 16" fill="none" xmlns="http://www.w3.org/2000/svg">
<rect x="0" y="0" width="16" height="16" fill="#fff"/>
<path fill-rule="evenodd" clip-rule="evenodd" d="M2.61066 6.89684C2.5381 7.25324 2.5 7.62217 2.5 8C2.5 9.56283 3.15183 10.9734 4.19846 11.9747L4.97788 10.1485L4.57985 7.36227L2.61066 6.89684ZM3.11297 5.47423L5.11443 5.94729L7.25 4.58829V2.55071C5.44494 2.79683 3.91853 3.91873 3.11297 5.47423ZM8.75 2.55071V4.58829L10.8856 5.94729L12.887 5.47423C12.0815 3.91873 10.5551 2.79683 8.75 2.55071ZM13.3893 6.89684L11.4201 7.36227L11.0221 10.1485L11.8015 11.9747C12.8482 10.9734 13.5 9.56283 13.5 8C13.5 7.62217 13.4619 7.25324 13.3893 6.89684ZM11.9301 13.7935C13.7829 12.5341 15 10.4092 15 8C15 4.13401 11.866 1 8 1C4.13401 1 1 4.13401 1 8C1 10.4092 2.21708 12.5341 4.06993 13.7935C4.07565 13.7975 4.08144 13.8014 4.0873 13.8052C5.20429 14.5596 6.55071 15 8 15C9.44929 15 10.7957 14.5596 11.9127 13.8052C11.9186 13.8014 11.9243 13.7975 11.9301 13.7935ZM10.5538 12.8724L9.75464 11H6.24536L5.44622 12.8724C6.20935 13.2732 7.07819 13.5 8 13.5C8.92181 13.5 9.79065 13.2732 10.5538 12.8724ZM6.40047 9.5H9.59953L9.93911 7.12296L8 5.88898L6.06089 7.12296L6.40047 9.5Z" fill="#000"/>
</svg>

<svg xmlns="http://www.w3.org/2000/svg" width="32" height="32" fill="none" viewBox="0 0 16 16"><path fill="#fff" d="M0 0h16v16H0z"/><path fill="#000" fill-rule="evenodd" d="M2.61 6.897Q2.502 7.432 2.5 8c0 1.563.652 2.973 1.698 3.975l.78-1.826-.398-2.787zm.503-1.423 2.001.473L7.25 4.588V2.551a5.5 5.5 0 0 0-4.137 2.923M8.75 2.551v2.037l2.136 1.36 2.001-.474A5.5 5.5 0 0 0 8.75 2.551m4.64 4.346-1.97.465-.398 2.787.78 1.826A5.48 5.48 0 0 0 13.5 8q-.001-.568-.11-1.103m-1.46 6.897A7 7 0 1 0 4.07 2.207a7 7 0 0 0 7.86 11.587m-1.376-.922L9.754 11H6.246l-.799 1.872c.763.401 1.632.628 2.554.628s1.79-.227 2.554-.628M6.4 9.5h3.2l.34-2.377L8 5.889 6.06 7.123z" clip-rule="evenodd"/></svg>
